src/assets/img/refresh.svg

<?xml version="1.0" encoding="UTF-8" standalone="no"?>
<svg width="16px" height="16px" viewBox="0 0 16 16" version="1.1" xmlns="http://www.w3.org/2000/svg" xmlns:xlink="http://www.w3.org/1999/xlink">
    <!-- Generator: Sketch 46.2 (44496) - http://www.bohemiancoding.com/sketch -->
    <title>刷新</title>
    <desc>Created with Sketch.</desc>
    <defs></defs>
    <g id="Page-1" stroke="none" stroke-width="1" fill="none" fill-rule="evenodd">
        <g id="Artboard" transform="translate(-53.000000, -27.000000)" fill-rule="nonzero" fill="#666666">
            <g id="刷新" transform="translate(53.000000, 27.000000)">
                <path d="M14,8 C14,4.6862915 11.3137085,2 8,2 C6.18686481,2 4.50503839,2.80980005 3.37242897,4.18065407 C3.1965438,4.39353671 3.22653618,4.70869529 3.43941882,4.88458046 C3.65230147,5.06046563 3.96746004,5.03047324 4.14334521,4.8175906 C5.08795488,3.67428211 6.48833201,3 8,3 C10.7614237,3 13,5.23857625 13,8 C13,8.27614237 13.2238576,8.5 13.5,8.5 C13.7761424,8.5 14,8.27614237 14,8 Z M2,8 C2,11.3137085 4.6862915,14 8,14 C9.77032802,14 11.416487,13.228188 12.5490394,11.9124647 C12.7291893,11.7031787 12.7055698,11.3874786 12.4962837,11.2073287 C12.2869977,11.0271788 11.9712976,11.0507983 11.7911477,11.2600843 C10.8466039,12.3573918 9.47601723,13 8,13 C5.23857625,13 3,10.7614237 3,8 C3,7.72385763 2.77614237,7.5 2.5,7.5 C2.22385763,7.5 2,7.72385763 2,8 Z" id="Oval-2"></path>
                <path d="M4,1.5 L4,4 L6.5,4 C6.77614237,4 7,4.22385763 7,4.5 C7,4.77614237 6.77614237,5 6.5,5 L3.5,5 C3.22385763,5 3,4.77614237 3,4.5 L3,1.5 C3,1.22385763 3.22385763,1 3.5,1 C3.77614237,1 4,1.22385763 4,1.5 Z M12,14.5 L12,11.9975947 L9.5,11.9975947 C9.22385763,11.9975947 9,11.773737 9,11.4975947 C9,11.2214523 9.22385763,10.9975947 9.5,10.9975947 L12.5,10.9975947 C12.7761424,10.9975947 13,11.2214523 13,11.4975947 L13,14.5 C13,14.7761424 12.7761424,15 12.5,15 C12.2238576,15 12,14.7761424 12,14.5 Z" id="Combined-Shape"></path>
            </g>
        </g>
    </g>
</svg>

<svg width="16" height="16" viewBox="0 0 16 16" xmlns="http://www.w3.org/2000/svg"><g fill-rule="nonzero" fill="#666"><path d="M14 8A6 6 0 0 0 3.372 4.18a.5.5 0 1 0 .771.638A5 5 0 0 1 13 8a.5.5 0 1 0 1 0zM2 8a6 6 0 0 0 10.549 3.912.5.5 0 1 0-.758-.652A5 5 0 0 1 3 8a.5.5 0 0 0-1 0z"/><path d="M4 1.5V4h2.5a.5.5 0 0 1 0 1h-3a.5.5 0 0 1-.5-.5v-3a.5.5 0 0 1 1 0zm8 13v-2.502H9.5a.5.5 0 0 1 0-1h3a.5.5 0 0 1 .5.5V14.5a.5.5 0 1 1-1 0z"/></g></svg>
